src/images/icons/accordion-opened.svg

<?xml version="1.0" encoding="UTF-8"?>
<svg id="Layer_1" xmlns="http://www.w3.org/2000/svg" version="1.1" viewBox="0 0 32 32">
  <!-- Generator: Adobe Illustrator 30.2.1, SVG Export Plug-In . SVG Version: 2.1.1 Build 1)  -->
  <defs>
    <style>
      .st0 {
        fill: #e3e3e3;
        fill-rule: evenodd;
      }
    </style>
  </defs>
  <path class="st0" d="M17.8,0h-2.8v15H0v2.8h15v14.2h2.8v-14.2h14.2v-2.8h-14.2V0Z"/>
</svg>

<svg width="32" height="32" viewBox="0 0 32 32" fill="none" xmlns="http://www.w3.org/2000/svg">
<path fill-rule="evenodd" clip-rule="evenodd" d="M17.8 0H15V15H0V17.8H15V32H17.8V17.8H32V15H17.8V0Z" fill="#222222"/>
</svg>
